X: 25624
T: Martha Campbell
R: reel
M: 4/4
K: Dmajor
|:"D"[DA]A[FA]A BFAF|DEFA B2 A2|[DA]A[FA]A BFAF|"A"G2 FF [E4A4]|
"D"[DA]A[FA]A BFAF|DEFA B2 A2|ABde fgfe|"A"dBAG "D"FD D2:|
|:"D"ABde fdfd|"G"efde fdfd|"D"ABde f2 d2|"A"fedf edBd|
"D"ABde fdfd|"G"efde fdfg|"D"afge fd e2|"A"dBAG "D"FD D2:|

